images/logo-icon.svg

<svg width="558" height="579" viewBox="0 0 558 579" fill="none" xmlns="http://www.w3.org/2000/svg">
<path d="M273.133 134.59C218.329 60.0998 123.609 -28.0641 61.1069 8.56574C34.7577 23.9839 18.2319 64.772 9.09368 106.759C-5.31375 178.773 -2.38082 238.608 16.3239 269.46C28.1629 289.223 48.9828 302.975 77.8647 310.357C99.5163 315.714 124.09 317.786 149.674 318.564C161.331 318.922 173.195 318.985 185.059 318.922C146.066 374.926 117.678 427.597 116.003 467.949C114.081 496.994 155.632 547.36 224.469 571.033C328.144 606.962 363.037 507.896 366.113 421.99C369.669 322.878 334.09 216.836 273.184 134.621H273.133V134.59Z" fill="#003CA6"/>
<path d="M548.74 219.094C541.977 207.74 530.074 199.938 513.472 195.702C501.1 192.649 486.991 191.466 472.335 190.967C465.65 190.765 458.863 190.734 452.073 190.78C474.426 158.667 490.652 128.516 491.626 105.373C492.702 88.7247 466.884 56.6113 427.423 43.0308C368.012 22.4577 350.111 82.464 348.346 131.646C346.333 188.398 366.713 249.198 401.566 296.247C432.979 338.904 487.212 389.41 523.025 368.463C538.135 359.633 547.611 336.241 552.79 312.226C561.02 270.97 559.397 236.677 548.65 219L548.701 219.078H548.728L548.74 219.094Z" fill="#003CA6"/>
</svg>

<svg xmlns="http://www.w3.org/2000/svg" width="558" height="579" fill="none" viewBox="0 0 558 579"><path fill="#003ca6" d="M273.133 134.59C218.329 60.1 123.609-28.064 61.107 8.566c-26.35 15.418-42.875 56.206-52.013 98.193-14.408 72.014-11.475 131.849 7.23 162.701 11.839 19.763 32.659 33.515 61.54 40.897 21.652 5.357 46.226 7.429 71.81 8.207 11.657.358 23.521.421 35.385.358-38.993 56.004-67.381 108.675-69.056 149.027-1.922 29.045 39.629 79.411 108.466 103.084 103.675 35.929 138.568-63.137 141.644-149.043 3.556-99.112-32.023-205.154-92.929-287.369h-.051zm275.607 84.504c-6.763-11.354-18.666-19.156-35.268-23.392-12.372-3.053-26.481-4.236-41.137-4.735-6.685-.202-13.472-.233-20.262-.187 22.353-32.113 38.579-62.264 39.553-85.407 1.076-16.648-24.742-48.762-64.203-62.342-59.411-20.573-77.312 39.433-79.077 88.615-2.013 56.752 18.367 117.552 53.22 164.601 31.413 42.657 85.646 93.163 121.459 72.216 15.11-8.83 24.586-32.222 29.765-56.237 8.23-41.256 6.607-75.549-4.14-93.226l.051.078h.027z"/></svg>
